assets/img/icons/icon-instagram.svg

<svg fill="none" height="75" viewBox="0 0 75 75" width="75" xmlns="http://www.w3.org/2000/svg"><g fill="#bc6e44"><path d="m74.8992 58.0976c-.0096 9.3568-7.4368 16.8-16.7776 16.8032-13.7643.0064-27.5275.0064-41.2896 0-9.408-.0032-16.8288-7.4368-16.832-16.8576v-41.1808c.0032-9.4272 7.4208-16.85440249 16.832-16.8575992 13.7643-.00640107 27.5264-.00640107 41.2864 0 9.3376.00319671 16.7712 7.4559892 16.7808 16.8031992zm-10.5824-20.5568c0-4.1024.0192-8.2016-.0032-12.3008-.0512-8.5216-6.3456-14.784-14.8512-14.7904-7.8784-.0043-15.7579-.0043-23.6384 0-9.0304.0032-15.2192 6.144-15.2384 15.152-.0171 7.9488-.0171 15.8997 0 23.8528.016 8.7872 6.2496 14.9888 15.0656 14.9984 7.9147.0043 15.8304.0043 23.7472 0 8.5888-.0064 14.864-6.24 14.9152-14.8256.0224-4.0288.0032-8.0576.0032-12.0864z"/><path d="m14.7104 37.4127c0-4.0288-.0128-8.0576.0032-12.0864.0256-6.3328 4.4608-10.752 10.7936-10.7616 7.9872-.0107 15.9733-.0107 23.9584 0 6.2432.0096 10.7008 4.4768 10.7104 10.736.0149 8.1301.016 16.2592.0032 24.3872-.0128 6.1664-4.5152 10.6464-10.688 10.6528-8.0213.0107-16.0427.0096-24.064-.0032-6.2368-.0064-10.7072-4.496-10.7168-10.7328-.0021-4.064-.0021-8.128 0-12.192zm8.096-.0512c-.0672 7.9872 6.3808 14.5632 14.352 14.6432 8.1024.08 14.6624-6.3008 14.7488-14.3392.0864-8.0704-6.336-14.6816-14.3488-14.768-8.1152-.0864-14.6848 6.3552-14.752 14.464zm30.3488-12.048c1.3504-.016 2.4416-1.1392 2.4064-2.4736-.032-1.312-1.1008-2.3584-2.4096-2.3648-1.3632-.0032-2.4544 1.072-2.4512 2.4224.0032 1.3632 1.0912 2.4352 2.4544 2.416z"/><ellipse cx="37.3951" cy="37.4511" rx="10.3937" ry="10.4"/></g></svg>

<svg width="75" height="75" viewBox="0 0 75 75" fill="none" xmlns="http://www.w3.org/2000/svg">
<path d="M74.8992 58.0976C74.8896 67.4544 67.4624 74.8976 58.1216 74.9008C44.3573 74.9072 30.5941 74.9072 16.832 74.9008C7.424 74.8976 0.0032 67.464 0 58.0432V16.8624C0.0032 7.4352 7.4208 0.00799751 16.832 0.0048008C30.5963 -0.00160027 44.3584 -0.00160027 58.1184 0.0048008C67.456 0.00799751 74.8896 7.46079 74.8992 16.808V58.0976ZM64.3168 37.5408C64.3168 33.4384 64.336 29.3392 64.3136 25.24C64.2624 16.7184 57.968 10.456 49.4624 10.4496C41.584 10.4453 33.7045 10.4453 25.824 10.4496C16.7936 10.4528 10.6048 16.5936 10.5856 25.6016C10.5685 33.5504 10.5685 41.5013 10.5856 49.4544C10.6016 58.2416 16.8352 64.4432 25.6512 64.4528C33.5659 64.4571 41.4816 64.4571 49.3984 64.4528C57.9872 64.4464 64.2624 58.2128 64.3136 49.6272C64.336 45.5984 64.3168 41.5696 64.3168 37.5408Z" fill="#BC6E44"/>
<path d="M14.7104 37.4127C14.7104 33.3839 14.6976 29.3551 14.7136 25.3263C14.7392 18.9935 19.1744 14.5743 25.5072 14.5647C33.4944 14.554 41.4805 14.554 49.4656 14.5647C55.7088 14.5743 60.1664 19.0415 60.176 25.3007C60.1909 33.4308 60.192 41.5599 60.1792 49.6879C60.1664 55.8543 55.664 60.3343 49.4912 60.3407C41.4699 60.3514 33.4485 60.3503 25.4272 60.3375C19.1904 60.3311 14.72 55.8415 14.7104 49.6047C14.7083 45.5407 14.7083 41.4767 14.7104 37.4127ZM22.8064 37.3615C22.7392 45.3487 29.1872 51.9247 37.1584 52.0047C45.2608 52.0847 51.8208 45.7039 51.9072 37.6655C51.9936 29.5951 45.5712 22.9839 37.5584 22.8975C29.4432 22.8111 22.8736 29.2527 22.8064 37.3615ZM53.1552 25.3135C54.5056 25.2975 55.5968 24.1743 55.5616 22.8399C55.5296 21.5279 54.4608 20.4815 53.152 20.4751C51.7888 20.4719 50.6976 21.5471 50.7008 22.8975C50.704 24.2607 51.792 25.3327 53.1552 25.3135Z" fill="#BC6E44"/>
<ellipse cx="37.3951" cy="37.4511" rx="10.3937" ry="10.4" fill="#BC6E44"/>
</svg>
